Numix-GalliumOS/64/mimetypes/libreoffice-extension.svg

<svg xmlns="http://www.w3.org/2000/svg" xmlns:xlink="http://www.w3.org/1999/xlink" width="64px" height="64px" viewBox="0 0 64 64" version="1.1">
<g id="surface1">
<path style=" stroke:none;fill-rule:nonzero;fill:rgb(53.333333%,53.333333%,53.333333%);fill-opacity:1;" d="M 10.671875 0 C 9.296875 0 8 1.355469 8 2.789062 L 8 61.210938 C 8 62.566406 9.375 64 10.671875 64 L 53.328125 64 C 54.625 64 56 62.566406 56 61.210938 L 56 18 L 38 0 Z M 10.671875 0 "/>
<path style=" stroke:none;fill-rule:nonzero;fill:rgb(0%,0%,0%);fill-opacity:0.196078;" d="M 42 18 L 56 32 L 56 18 Z M 42 18 "/>
<path style=" stroke:none;fill-rule:nonzero;fill:rgb(100%,100%,100%);fill-opacity:0.392157;" d="M 38 0 L 55.984375 18 L 40.757812 18 C 39.410156 18 38 16.574219 38 15.226562 Z M 38 0 "/>
<path style=" stroke:none;fill-rule:nonzero;fill:rgb(100%,100%,100%);fill-opacity:1;" d="M 24 26 L 24 34 C 24 32.523438 25.195312 31.328125 26.664062 31.328125 C 28.140625 31.328125 29.335938 32.523438 29.335938 34 C 29.335938 35.46875 28.140625 36.664062 26.664062 36.664062 C 25.195312 36.664062 24 35.46875 24 34 L 24 42 L 32 42 C 30.523438 42 29.335938 40.804688 29.335938 39.328125 C 29.335938 37.859375 30.523438 36.664062 32 36.664062 C 33.476562 36.664062 34.664062 37.859375 34.664062 39.328125 C 34.664062 40.804688 33.476562 42 32 42 L 40 42 L 40 26 Z M 24 26 "/>
<path style=" stroke:none;fill-rule:nonzero;fill:rgb(100%,100%,100%);fill-opacity:1;" d="M 34.664062 23.328125 C 34.664062 24.804688 33.46875 26 32 26 C 30.523438 26 29.335938 24.804688 29.335938 23.328125 C 29.335938 21.859375 30.523438 20.664062 32 20.664062 C 33.46875 20.664062 34.664062 21.859375 34.664062 23.328125 Z M 34.664062 23.328125 "/>
<path style=" stroke:none;fill-rule:nonzero;fill:rgb(100%,100%,100%);fill-opacity:1;" d="M 45.335938 34 C 45.335938 35.46875 44.140625 36.664062 42.664062 36.664062 C 41.195312 36.664062 40 35.46875 40 34 C 40 32.523438 41.195312 31.328125 42.664062 31.328125 C 44.140625 31.328125 45.335938 32.523438 45.335938 34 Z M 45.335938 34 "/>
<path style=" stroke:none;fill-rule:nonzero;fill:rgb(0%,0%,0%);fill-opacity:0.196078;" d="M 8 48 L 8 61.335938 C 8 62.632812 9.375 64 10.664062 64 L 53.335938 64 C 54.625 64 56 62.632812 56 61.335938 L 56 48 Z M 8 48 "/>
<path style=" stroke:none;fill-rule:nonzero;fill:rgb(100%,100%,100%);fill-opacity:1;" d="M 20.140625 56.554688 C 20.140625 57.085938 20.15625 57.585938 20.199219 58.046875 C 20.25 58.503906 20.339844 58.902344 20.472656 59.242188 C 20.613281 59.582031 20.8125 59.847656 21.0625 60.046875 C 21.308594 60.246094 21.640625 60.34375 22.054688 60.34375 C 22.460938 60.34375 22.785156 60.246094 23.035156 60.046875 C 23.292969 59.847656 23.492188 59.582031 23.625 59.242188 C 23.765625 58.886719 23.855469 58.488281 23.898438 58.03125 C 23.945312 57.574219 23.972656 57.085938 23.972656 56.554688 C 23.972656 56.035156 23.945312 55.542969 23.898438 55.089844 C 23.855469 54.617188 23.765625 54.21875 23.625 53.878906 C 23.492188 53.539062 23.300781 53.273438 23.050781 53.074219 C 22.800781 52.875 22.472656 52.777344 22.054688 52.777344 C 21.640625 52.777344 21.308594 52.875 21.0625 53.074219 C 20.8125 53.273438 20.613281 53.546875 20.472656 53.894531 C 20.339844 54.234375 20.25 54.632812 20.199219 55.089844 C 20.15625 55.542969 20.140625 56.035156 20.140625 56.554688 M 17.695312 56.554688 C 17.695312 54.691406 18.085938 53.28125 18.847656 52.335938 C 19.617188 51.375 20.6875 50.902344 22.054688 50.902344 C 23.472656 50.902344 24.558594 51.375 25.296875 52.335938 C 26.042969 53.28125 26.417969 54.691406 26.417969 56.554688 C 26.417969 58.429688 26.035156 59.839844 25.28125 60.800781 C 24.527344 61.746094 23.457031 62.21875 22.074219 62.21875 C 20.65625 62.21875 19.570312 61.746094 18.816406 60.800781 C 18.070312 59.839844 17.695312 58.429688 17.695312 56.554688 "/>
<path style=" stroke:none;fill-rule:nonzero;fill:rgb(100%,100%,100%);fill-opacity:1;" d="M 33.902344 61.988281 C 33.65625 61.398438 33.347656 60.734375 32.984375 60.011719 C 32.628906 59.285156 32.253906 58.5625 31.863281 57.839844 C 31.492188 58.53125 31.109375 59.242188 30.738281 59.996094 C 30.355469 60.726562 30.03125 61.398438 29.757812 61.988281 L 27.15625 61.988281 C 27.289062 61.671875 27.476562 61.296875 27.726562 60.851562 C 27.984375 60.410156 28.265625 59.929688 28.566406 59.417969 C 28.878906 58.902344 29.203125 58.371094 29.542969 57.839844 C 29.882812 57.285156 30.207031 56.761719 30.519531 56.257812 L 27.355469 51.140625 L 29.949219 51.140625 L 31.863281 54.617188 L 33.878906 51.140625 L 36.300781 51.140625 L 33.214844 56.207031 C 33.5625 56.714844 33.910156 57.234375 34.253906 57.78125 C 34.59375 58.332031 34.90625 58.871094 35.1875 59.398438 C 35.488281 59.914062 35.753906 60.394531 35.96875 60.851562 C 36.191406 61.296875 36.367188 61.671875 36.5 61.988281 L 33.902344 61.988281 "/>
<path style=" stroke:none;fill-rule:nonzero;fill:rgb(100%,100%,100%);fill-opacity:1;" d="M 46 51.140625 L 46 52.933594 L 42.808594 52.933594 L 42.808594 61.988281 L 40.386719 61.988281 L 40.386719 52.933594 L 37.203125 52.933594 L 37.203125 51.140625 L 46 51.140625 "/>
</g>
</svg>

<svg xmlns="http://www.w3.org/2000/svg" viewBox="0 0 64 64">
 <g>
  <path d="m 10.672 0 c -1.375 0 -2.672 1.355 -2.672 2.789 l 0 58.42 c 0 1.355 1.375 2.789 2.672 2.789 l 42.656 0 c 1.297 0 2.672 -1.434 2.672 -2.789 l 0 -43.21 l -18 -18 m -27.328 0" style="fill:#878787;fill-opacity:1;stroke:none;fill-rule:nonzero"/>
  <path d="m 42 18 l 14 14 l 0 -14 m -14 0" style="fill:#000;fill-opacity:0.196;stroke:none;fill-rule:nonzero"/>
  <path d="m 38 0 l 17.984 18 l -15.227 0 c -1.348 0 -2.758 -1.426 -2.758 -2.773 m 0 -15.227" style="fill:#fff;fill-opacity:0.392;stroke:none;fill-rule:nonzero"/>
  <path d="m 24 26 l 0 8 c 0 -1.477 1.195 -2.672 2.664 -2.672 c 1.477 0 2.672 1.195 2.672 2.672 c 0 1.469 -1.195 2.664 -2.672 2.664 c -1.469 0 -2.664 -1.195 -2.664 -2.664 l 0 8 l 8 0 c -1.477 0 -2.664 -1.195 -2.664 -2.672 c 0 -1.469 1.188 -2.664 2.664 -2.664 c 1.477 0 2.664 1.195 2.664 2.664 c 0 1.477 -1.188 2.672 -2.664 2.672 l 8 0 l 0 -16 m -16 0" style="fill:#fff;fill-opacity:1;stroke:none;fill-rule:nonzero"/>
  <path d="m 34.664 23.328 c 0 1.477 -1.195 2.672 -2.664 2.672 c -1.477 0 -2.664 -1.195 -2.664 -2.672 c 0 -1.469 1.188 -2.664 2.664 -2.664 c 1.469 0 2.664 1.195 2.664 2.664 m 0 0" style="fill:#fff;fill-opacity:1;stroke:none;fill-rule:nonzero"/>
  <path d="m 45.34 34 c 0 1.469 -1.195 2.664 -2.672 2.664 c -1.469 0 -2.664 -1.195 -2.664 -2.664 c 0 -1.477 1.195 -2.672 2.664 -2.672 c 1.477 0 2.672 1.195 2.672 2.672 m 0 0" style="fill:#fff;fill-opacity:1;stroke:none;fill-rule:nonzero"/>
  <path d="m 8 48 l 0 13.336 c 0 1.297 1.375 2.664 2.664 2.664 l 42.672 0 c 1.289 0 2.664 -1.367 2.664 -2.664 l 0 -13.336 m -48 0" style="fill:#000;fill-opacity:0.196;stroke:none;fill-rule:nonzero"/>
  <path d="m 20.14 56.55 c 0 0.531 0.016 1.031 0.059 1.492 c 0.051 0.457 0.141 0.855 0.273 1.195 c 0.141 0.34 0.34 0.605 0.59 0.805 c 0.246 0.199 0.578 0.297 0.992 0.297 c 0.406 0 0.73 -0.098 0.98 -0.297 c 0.258 -0.199 0.457 -0.465 0.59 -0.805 c 0.141 -0.355 0.23 -0.754 0.273 -1.211 c 0.047 -0.457 0.074 -0.945 0.074 -1.477 c 0 -0.52 -0.027 -1.012 -0.074 -1.465 c -0.043 -0.473 -0.133 -0.871 -0.273 -1.211 c -0.133 -0.34 -0.324 -0.605 -0.574 -0.805 c -0.25 -0.199 -0.578 -0.297 -0.996 -0.297 c -0.414 0 -0.746 0.098 -0.992 0.297 c -0.25 0.199 -0.449 0.473 -0.59 0.82 c -0.133 0.34 -0.223 0.738 -0.273 1.195 c -0.043 0.453 -0.059 0.945 -0.059 1.465 m -2.445 0 c 0 -1.863 0.391 -3.273 1.152 -4.219 c 0.77 -0.961 1.84 -1.434 3.207 -1.434 c 1.418 0 2.504 0.473 3.242 1.434 c 0.746 0.945 1.121 2.355 1.121 4.219 c 0 1.875 -0.383 3.285 -1.137 4.246 c -0.754 0.945 -1.824 1.418 -3.207 1.418 c -1.418 0 -2.504 -0.473 -3.258 -1.418 c -0.746 -0.961 -1.121 -2.371 -1.121 -4.246" style="fill:#fff;fill-opacity:1;stroke:none;fill-rule:nonzero"/>
  <path d="m 33.902 61.988 c -0.246 -0.59 -0.555 -1.254 -0.918 -1.977 c -0.355 -0.727 -0.73 -1.449 -1.121 -2.172 c -0.371 0.691 -0.754 1.402 -1.125 2.156 c -0.383 0.73 -0.707 1.402 -0.98 1.992 l -2.602 0 c 0.133 -0.316 0.32 -0.691 0.57 -1.137 c 0.258 -0.441 0.539 -0.922 0.84 -1.434 c 0.313 -0.516 0.637 -1.047 0.977 -1.578 c 0.34 -0.555 0.664 -1.078 0.977 -1.582 l -3.164 -5.117 l 2.594 0 l 1.914 3.477 l 2.02 -3.477 l 2.422 0 l -3.086 5.066 c 0.348 0.508 0.695 1.027 1.039 1.574 c 0.34 0.551 0.652 1.09 0.934 1.617 c 0.301 0.516 0.566 0.996 0.781 1.453 c 0.223 0.445 0.398 0.82 0.531 1.137 l -2.598 0" style="fill:#fff;fill-opacity:1;stroke:none;fill-rule:nonzero"/>
  <path d="m 46 51.14 l 0 1.793 l -3.191 0 l 0 9.05 l -2.422 0 l 0 -9.05 l -3.184 0 l 0 -1.793 l 8.797 0" style="fill:#fff;fill-opacity:1;stroke:none;fill-rule:nonzero"/>
 </g>
</svg>
